X: 28
T:Captain Lachlan MacPhail
% Nottingham Music Database
P:AABBCCDD
S:Unleashed, via EF
M:4/4
L:1/4
K:A
P:A
"F#m"A3/2c/2 ee|"D"f/2a/2a/2e/2 f/2e/2e/2c/2|"F#m"A3/2c/2 ee/2f/2|\
"E"e/2c/2B/2A/2 B3/2e/2|
"F#m"A3/2c/2 ee|"C#m"f/2a/2a/2e/2 f/2e/2e/2c/2|"Bm"A3/2B/2 "A/c+"c/2e/2f/2c/2|\
"D"B/2A/2A/2B/2 "E"Ae:|
P:B
"A"a3/2e/2 f/2e/2c/2A/2|"A"c/2A/2A/2c/2 "E"c/2e/2e/2f/2|\
"A"a3/2e/2 f/2e/2c/2A/2|"A"A/2f/2e/2c/2 "E"B3/2e/2|
"F#m"a3/2e/2 f/2e/2c/2A/2|"A"c/2A/2A/2c/2 c/2"E"e/2e/2f/2|\
"Bm"A3/2B/2 "A/c+"c/2e/2f/2c/2|"D"B/2A/2A/2B/2 "E"Ae:|
P:C
"F#m"c3/2B/2 AA/2c/2|"D"ee/2f/2 a/2e/2f/2e/2|"F#m"cc/2B/2 AA/2f/2|\
"E"e/2c/2B/2A/2 B2|
"F#m"c3/2B/2 AA/2c/2|"C#m"ee/2f/2 a/2e/2f/2e/2|"Bm"A3/2B/2 "A/c+"c/2e/2f/2c/2|\
"D"B/2A/2A/2B/2 "E"Ae:|
P:D
"A"a3/2e/2 f/2e/2e/2f/2|"A"c/2A/2c/2e/2 "E"f/2a/2a/2e/2|\
"A"a3/2e/2 "E"f/2e/2e/2f/2|"A"e/2c/2B/2A/2 "E"Be|
"F#m"a3/2e/2 f/2e/2e/2f/2|"A"c/2A/2c/2e/2 "E"f/2a/2a/2e/2|\
"Bm"A3/2B/2 "A/c+"c/2e/2f/2c/2|"D"B/2A/2A/2B/2 "E"Ae:|


